Numix-GalliumOS/22/devices/media-floppy.svg

<?xml version="1.0" encoding="UTF-8" standalone="no"?>
<svg
   xmlns:dc="http://purl.org/dc/elements/1.1/"
   xmlns:cc="http://creativecommons.org/ns#"
   xmlns:rdf="http://www.w3.org/1999/02/22-rdf-syntax-ns#"
   xmlns:svg="http://www.w3.org/2000/svg"
   xmlns="http://www.w3.org/2000/svg"
   xmlns:sodipodi="http://sodipodi.sourceforge.net/DTD/sodipodi-0.dtd"
   xmlns:inkscape="http://www.inkscape.org/namespaces/inkscape"
   width="22"
   height="22"
   viewBox="0 0 22 22"
   id="svg2"
   version="1.1"
   inkscape:version="0.91 r"
   sodipodi:docname="system-floppy.svg">
  <metadata
     id="metadata10">
    <rdf:RDF>
      <cc:Work
         rdf:about="">
        <dc:format>image/svg+xml</dc:format>
        <dc:type
           rdf:resource="http://purl.org/dc/dcmitype/StillImage" />
      </cc:Work>
    </rdf:RDF>
  </metadata>
  <defs
     id="defs8" />
  <sodipodi:namedview
     pagecolor="#ffffff"
     bordercolor="#666666"
     borderopacity="1"
     objecttolerance="10"
     gridtolerance="10"
     guidetolerance="10"
     inkscape:pageopacity="0"
     inkscape:pageshadow="2"
     inkscape:window-width="1366"
     inkscape:window-height="704"
     id="namedview6"
     showgrid="false"
     inkscape:zoom="10.727273"
     inkscape:cx="11"
     inkscape:cy="11"
     inkscape:window-x="0"
     inkscape:window-y="27"
     inkscape:window-maximized="1"
     inkscape:current-layer="svg2" />
  <path
     style="fill:#002b36;stroke:none"
     d="M 2.9999999,2.9999998 2.9999999,19 19,19 19,5.9999998 l -3,-3 z"
     id="path2989"
     inkscape:connector-curvature="0" />
  <path
     style="fill:#93a1a1;stroke:none"
     d="m 15,2.9999998 0,4 -5.9999999,0 0,-4 z"
     id="path3759"
     inkscape:connector-curvature="0" />
  <path
     style="fill:#eee8d5;stroke:none"
     d="M 4.9999998,8.9999998 4.9999998,19 17,19 17,8.9999998 z"
     id="path3761"
     inkscape:connector-curvature="0" />
  <path
     style="fill:#002b36;stroke:none"
     d="m 14,3.9999998 0,2 -1,0 0,-2 z"
     id="path3763"
     inkscape:connector-curvature="0" />
  <path
     style="fill:#002b36;stroke:none"
     d="m 5.9999998,12 0,1 L 16,13 16,12 z"
     id="path3765"
     inkscape:connector-curvature="0" />
  <path
     style="fill:#002b36;stroke:none"
     d="m 16,16 -10.0000002,0 0,1 L 16,17 z"
     id="path3767"
     inkscape:connector-curvature="0" />
  <path
     style="fill:#fdf6e3;fill-opacity:0.22891564;stroke:none"
     d="M 17,3.9999998 17,19 18,19 18,4.9999998 z"
     id="path3769"
     inkscape:connector-curvature="0" />
</svg>

<svg xmlns="http://www.w3.org/2000/svg" viewBox="0 0 22 22">
 <path d="m 3 3 0 16 16 0 0 -13 l -3 -3 z" style="fill:#002b36;stroke:none"/>
 <path d="m 15 3 0 4 -6 0 0 -4 z" style="fill:#93a1a1;stroke:none"/>
 <path d="m 5 9 0 10 12 0 0 -10 z" style="fill:#eee8d5;stroke:none"/>
 <path d="m 14 4 0 2 -1 0 0 -2 z" style="fill:#002b36;stroke:none"/>
 <path d="m 6 12 0 1 l 10 0 0 -1 z" style="fill:#002b36;stroke:none"/>
 <path d="m 16 16 -10 0 0 1 l 10 0 z" style="fill:#002b36;stroke:none"/>
 <path d="m 17 4 0 15 1 0 0 -14 z" style="fill:#fdf6e3;fill-opacity:0.229;stroke:none"/>
</svg>
